!!!COM: Andre, David Francois Marc (et al)
!!!CDT: b. 1958
!!!OTL: National Anthem, Seychelles - Koste Seselwa (Seychellois, Unite!)
!!!ENC: Davis, Matthew J.
!!Vocal Line Only
**kern
*clefG2
*k[b-e-a-]
*E-:
*M4/4
=1-
4r
=2
1r
=3
1r
==4
*M2/4
8r
8e-
8e-
8f
=5
4g
4a-
=6
4.a-
8g
=7
[2f
=8
4f]
8f
8g
=9
4a
4b-
=10
4.b-
8a
=11
[2g
=12
4g]
4e-
==13
*M4/4
4.cc
8b-
4a-
4cc
=14
2b-
4.g
8g
=15
4f
4g
4an
4cc
=16
[2b-
8b-]
8e-
8e-
8f
==17
*M2/4
4g
4a-
=18
4.a-
8g
=19
[2f
=20
4f]
8f
8g
=21
4a-
4b-
=22
4.b-
8a-
=23
[2g
=24
4g]
4e-
==25
*M4/4
4.cc
8b-
4a-
4cc
=26
2b-
4.g
8g
=27
4.f
8g
4a-
4f
=28
2e-
4r
6g
6g
6f
=29
4f
4e-
4.f
8g
=30
1e-
=31
4.cc
8b-
4a-
4cc
=32
8cc
8b-
2.b-
=33
2b-
4cc
4a-
=34
8g
8f
8g
8a-
2b-
=35
4f
4a-
4.cc
8b-
=36
[2e-
4e-]
4r
==|!
*-
